X: 1
T:Waltz for Maureen
M:3/4
L:1/8
C:Linda Hickman
R:Waltz
K:EMin
[|:F2||E3 G B2|A2 F2 D2|E6- |E4 Bc|d4 B2|B3 A G2|F2 A4-|A4 A2|!
B3 c d2|B4 G2|A2 d2 G2|F3 E D2|E2 B2 G2|A2 F2 D2|E6- |E4:|!
|:F2||G3 A Bc|d2 B2 A2|Be- e4-|e4 ef|e3 d B2|d2 A2 G2|F2 D4-|D4 ef|!
g3 f e2|f2 e2 d2|e2 B2 G2|F3 E D2|E2 B2 G2|A2 F2 D2|E6-|E4:|]!
